X: 140760
T: Navvy on the Shore
S: B.Flaherty
Z: B.Black
M: 4/4
L: 1/8
R: reel
K: G
BA|GABD edge|d2 BG AGEF|GABd edBd|e2 ge edBA|
GABD edge|d2 BG AGEF|GABd edge|dGGF G2 :|
ga|bg g2 eg g2|dgbg ageg|dg g2 bgag|eaag a2 ga|
b2 ag egge|d2 BG AGEF|GABd edge|dGGF G2 :|
